teeny/outline/note.svg

<svg width="15" height="15" viewBox="0 0 15 15" fill="none" xmlns="http://www.w3.org/2000/svg">
<path d="M10.5 14.5H10C10 14.7022 10.1218 14.8845 10.3087 14.9619C10.4955 15.0393 10.7106 14.9966 10.8536 14.8536L10.5 14.5ZM10.5 10.5V10C10.2239 10 10 10.2239 10 10.5H10.5ZM14.5 10.5L14.8536 10.8536C14.9966 10.7106 15.0393 10.4955 14.9619 10.3087C14.8845 10.1218 14.7022 10 14.5 10V10.5ZM1.5 1H13.5V0H1.5V1ZM1 13.5V1.5H0V13.5H1ZM14 1.5V10.0858H15V1.5H14ZM10.0858 14H1.5V15H10.0858V14ZM13.8536 10.4393L10.4393 13.8536L11.1464 14.5607L14.5607 11.1464L13.8536 10.4393ZM10.0858 15C10.4836 15 10.8651 14.842 11.1464 14.5607L10.4393 13.8536C10.3456 13.9473 10.2184 14 10.0858 14V15ZM14 10.0858C14 10.2184 13.9473 10.3456 13.8536 10.4393L14.5607 11.1464C14.842 10.8651 15 10.4836 15 10.0858H14ZM0 13.5C0 14.3284 0.671573 15 1.5 15V14C1.22386 14 1 13.7761 1 13.5H0ZM13.5 1C13.7761 1 14 1.22386 14 1.5H15C15 0.671573 14.3284 0 13.5 0V1ZM1.5 0C0.671573 0 0 0.671574 0 1.5H1C1 1.22386 1.22386 1 1.5 1V0ZM11 14.5V10.5H10V14.5H11ZM10.5 11H14.5V10H10.5V11ZM14.1464 10.1464L10.1464 14.1464L10.8536 14.8536L14.8536 10.8536L14.1464 10.1464ZM3 4H12V3H3V4Z" fill="black"/>
</svg>

<svg viewBox="0 0 15 15" xmlns="http://www.w3.org/2000/svg"><path d="M10.5 14.5H10c0 .2.12.38.3.46 .18.07.4.03.54-.11l-.36-.36Zm0-4V10c-.28 0-.5.22-.5.5h.5Zm4 0l.35.35c.14-.15.18-.36.1-.55 -.08-.19-.26-.31-.47-.31v.5ZM1.5 1h12V0h-12v1ZM1 13.5v-12H0v12h1Zm13-12v8.58h1V1.49h-1ZM10.08 14H1.49v1h8.58v-1Zm3.76-3.57l-3.42 3.41 .7.7 3.41-3.42 -.71-.71Zm-3.77 4.56c.39 0 .77-.16 1.06-.44l-.71-.71c-.1.09-.23.14-.36.14v1Zm3.91-4.92c0 .13-.06.25-.15.35l.7.7c.28-.29.43-.67.43-1.07h-1Zm-14 3.41c0 .82.67 1.5 1.5 1.5v-1c-.28 0-.5-.23-.5-.5h-1ZM13.48.98c.27 0 .5.22.5.5h1c0-.83-.68-1.5-1.5-1.5v1Zm-12-1c-.83 0-1.5.67-1.5 1.5h1c0-.28.22-.5.5-.5v-1Zm9.5 14.5v-4h-1v4h1Zm-.5-3.5h4v-1h-4v1Zm3.64-.86l-4 4 .7.7 4-4 -.71-.71ZM2.97 3.97h9v-1h-9v1Z"/></svg>
